icon-themes/sifr_svg/cmd/lc_fontworkshapetype.fontwork-wave.svg

<svg viewBox="0 0 24 24" xmlns="http://www.w3.org/2000/svg"><g fill="#555753"><path d="m21 7.4876772v6.9218748c-4-2.485076-8.5625.414153-11.28125 2.066406-2.71875 1.654042-4.71875 1.204042-6.71875-.475958v-6.7545103c3 1.9237493 5 1.3045103 7.28125.0545103 2.257145-1.2546278 6.078296-4.4168224 10.71875-1.8123228z" opacity=".35"/><path d="m17.740234 5.5035495c-1.195061-.058754-2.316889.1502117-3.316406.4964505-1.999034.6796884-3.602674 1.8510093-4.6289061 2.4215182-1.078188.5993923-1.9949219.9784818-2.9349219 1.0384818-.9341186.06-1.95-.18-3.3209375-1.06l-1.5390625-1v9.06l.359375.300781c1.092176.91292 2.2814102 1.565961 3.6269531 1.707032s2.7653522-.248899 4.2519529-1.152344c1.369053-.832008 3.124929-1.917633 4.939453-2.486328 1.814525-.568695 3.587759-.646545 5.294922.414062l1.527344.959565v-9.3066404l-.509766-.2851563c-1.286508-.7220654-2.554938-1.0486679-3.75-1.1074218zm-.111328 1.9726562c.738409.0342733 1.543546.3364941 2.371094.7226563v4.664062c-1.844747-.621447-3.741762-.457597-5.419922.06836-2.146413.672713-4.031162 1.863348-5.3808592 2.683593-1.2321491.748809-2.1717148.960502-3.0058594.873047-.716774-.075149-1.4346848-.508786-2.1933594-1.076171v-4.601563c1.0385361.433822 2.0425327.702769 2.9785156.646484 1.392845-.08376 2.610105-.633649 3.7890624-1.289062 1.230913-.6842961 2.666794-1.7215278 4.302734-2.28125.817971-.2798611 1.661527-.4517937 2.558594-.4101563z"/></g></svg>

<svg xmlns="http://www.w3.org/2000/svg" viewBox="0 0 24 24">
  <path
     style="opacity:0.35;fill:#555753"
     d="M 21,7.4876772 V 14.409552 C 17,11.924476 12.4375,14.823705 9.71875,16.475958 7,18.13 5,17.68 3,16 V 9.2454897 C 6,11.169239 8,10.55 10.28125,9.3 12.538395,8.0453722 16.359546,4.8831776 21,7.4876772 Z"
     />
  <path
     style="fill:#555753"
     d="M 17.740234,5.5035495 C 16.545173,5.4447955 15.423345,5.6537612 14.423828,6 12.424794,6.6796884 10.821154,7.8510093 9.7949219,8.4215182 8.7167339,9.0209105 7.8,9.4 6.86,9.46 5.9258814,9.52 4.91,9.28 3.5390625,8.4 L 2,7.4 v 9.06 l 0.359375,0.300781 c 1.092176,0.91292 2.2814102,1.565961 3.6269531,1.707032 1.3455429,0.141071 2.7653522,-0.248899 4.2519529,-1.152344 1.369053,-0.832008 3.124929,-1.917633 4.939453,-2.486328 1.814525,-0.568695 3.587759,-0.646545 5.294922,0.414062 L 22,16.202768 V 6.8961276 L 21.490234,6.6109713 c -1.286508,-0.7220654 -2.554938,-1.0486679 -3.75,-1.1074218 z M 17.628906,7.4762057 C 18.367315,7.510479 19.172452,7.8126998 20,8.198862 v 4.664062 c -1.844747,-0.621447 -3.741762,-0.457597 -5.419922,0.06836 -2.146413,0.672713 -4.031162,1.863348 -5.3808592,2.683593 C 7.9670697,16.363686 7.027504,16.575379 6.1933594,16.487924 5.4765854,16.412775 4.7586746,15.979138 4,15.411753 V 10.81019 c 1.0385361,0.433822 2.0425327,0.702769 2.9785156,0.646484 1.392845,-0.08376 2.610105,-0.633649 3.7890624,-1.289062 1.230913,-0.6842961 2.666794,-1.7215278 4.302734,-2.28125 0.817971,-0.2798611 1.661527,-0.4517937 2.558594,-0.4101563 z"
     />
</svg>
